static/img/kroki/40add88c67a20bdca3ccb18e1c4fbd2d.svg

<?xml version="1.0" encoding="us-ascii" standalone="no"?><svg xmlns="http://www.w3.org/2000/svg" xmlns:xlink="http://www.w3.org/1999/xlink" contentStyleType="text/css" height="1051px" preserveAspectRatio="none" style="width:400px;height:1051px;" version="1.1" viewBox="0 0 400 1051" width="400px" zoomAndPan="magnify"><defs/><g><!--class account--><g id="elem_account"><rect codeLine="22" fill="#3D176E" height="39.7891" id="account" rx="2.5" ry="2.5" style="stroke:#000D19;stroke-width:0.5;" width="107" x="61.5" y="438.76"/><ellipse cx="76.5" cy="458.6545" fill="#ADD1B2" rx="11" ry="11" style="stroke:#181818;stroke-width:1.0;"/><path d="M79.4688,464.2952 Q78.8906,464.592 78.25,464.7327 Q77.6094,464.8889 76.9063,464.8889 Q74.4063,464.8889 73.0781,463.2483 Q71.7656,461.592 71.7656,458.467 Q71.7656,455.342 73.0781,453.6858 Q74.4063,452.0295 76.9063,452.0295 Q77.6094,452.0295 78.25,452.1858 Q78.9063,452.342 79.4688,452.6389 L79.4688,455.3577 Q78.8438,454.7795 78.25,454.5139 Q77.6563,454.2327 77.0313,454.2327 Q75.6875,454.2327 75,455.3108 Q74.3125,456.3733 74.3125,458.467 Q74.3125,460.5608 75,461.6389 Q75.6875,462.7014 77.0313,462.7014 Q77.6563,462.7014 78.25,462.4358 Q78.8438,462.1545 79.4688,461.5764 L79.4688,464.2952 Z " fill="#000000"/><text fill="#D9B8FF" font-family="Helvetica" font-size="17" lengthAdjust="spacing" textLength="65" x="95.5" y="464.5398">account</text></g><!--class azure_resource--><g id="elem_azure_resource"><rect codeLine="24" fill="#3D176E" height="39.7891" id="azure_resource" rx="2.5" ry="2.5" style="stroke:#000D19;stroke-width:0.5;" width="168" x="203" y="438.76"/><ellipse cx="218" cy="458.6545" fill="#ADD1B2" rx="11" ry="11" style="stroke:#181818;stroke-width:1.0;"/><path d="M220.9688,464.2952 Q220.3906,464.592 219.75,464.7327 Q219.1094,464.8889 218.4063,464.8889 Q215.9063,464.8889 214.5781,463.2483 Q213.2656,461.592 213.2656,458.467 Q213.2656,455.342 214.5781,453.6858 Q215.9063,452.0295 218.4063,452.0295 Q219.1094,452.0295 219.75,452.1858 Q220.4063,452.342 220.9688,452.6389 L220.9688,455.3577 Q220.3438,454.7795 219.75,454.5139 Q219.1563,454.2327 218.5313,454.2327 Q217.1875,454.2327 216.5,455.3108 Q215.8125,456.3733 215.8125,458.467 Q215.8125,460.5608 216.5,461.6389 Q217.1875,462.7014 218.5313,462.7014 Q219.1563,462.7014 219.75,462.4358 Q220.3438,462.1545 220.9688,461.5764 L220.9688,464.2952 Z " fill="#000000"/><text fill="#D9B8FF" font-family="Helvetica" font-size="17" lengthAdjust="spacing" textLength="126" x="237" y="464.5398">azure_resource</text></g><!--class azure_subscription--><g id="elem_azure_subscription"><rect codeLine="26" fill="#3D176E" height="258.1641" id="azure_subscription" rx="2.5" ry="2.5" style="stroke:#000D19;stroke-width:0.5;" width="386" x="7" y="599.55"/><ellipse cx="113.25" cy="619.4445" fill="#ADD1B2" rx="11" ry="11" style="stroke:#181818;stroke-width:1.0;"/><path d="M116.2188,625.0852 Q115.6406,625.382 115,625.5227 Q114.3594,625.6789 113.6563,625.6789 Q111.1563,625.6789 109.8281,624.0383 Q108.5156,622.382 108.5156,619.257 Q108.5156,616.132 109.8281,614.4758 Q111.1563,612.8195 113.6563,612.8195 Q114.3594,612.8195 115,612.9758 Q115.6563,613.132 116.2188,613.4289 L116.2188,616.1477 Q115.5938,615.5695 115,615.3039 Q114.4063,615.0227 113.7813,615.0227 Q112.4375,615.0227 111.75,616.1008 Q111.0625,617.1633 111.0625,619.257 Q111.0625,621.3508 111.75,622.4289 Q112.4375,623.4914 113.7813,623.4914 Q114.4063,623.4914 115,623.2258 Q115.5938,622.9445 116.2188,622.3664 L116.2188,625.0852 Z " fill="#000000"/><text fill="#D9B8FF" font-family="Helvetica" font-size="17" lengthAdjust="spacing" textLength="155" x="138.75" y="625.3298">azure_subscription</text><line style="stroke:#000D19;stroke-width:0.5;" x1="8" x2="392" y1="639.3391" y2="639.3391"/><text fill="#D9B8FF" font-family="sans-serif" font-size="14" font-weight="bold" lengthAdjust="spacing" textLength="113" x="18" y="661.3342">account_name</text><text fill="#D9B8FF" font-family="sans-serif" font-size="14" lengthAdjust="spacing" textLength="48" x="131" y="661.3342">: string</text><text fill="#D9B8FF" font-family="sans-serif" font-size="14" font-weight="bold" lengthAdjust="spacing" textLength="166" x="18" y="687.6311">authorization_source</text><text fill="#D9B8FF" font-family="sans-serif" font-size="14" lengthAdjust="spacing" textLength="48" x="184" y="687.6311">: string</text><text fill="#D9B8FF" font-family="sans-serif" font-size="14" font-weight="bold" lengthAdjust="spacing" textLength="105" x="18" y="713.9279">display_name</text><text fill="#D9B8FF" font-family="sans-serif" font-size="14" lengthAdjust="spacing" textLength="48" x="123" y="713.9279">: string</text><text fill="#D9B8FF" font-family="sans-serif" font-size="14" font-weight="bold" lengthAdjust="spacing" textLength="165" x="18" y="740.2248">managed_by_tenants</text><text fill="#D9B8FF" font-family="sans-serif" font-size="14" lengthAdjust="spacing" textLength="58" x="183" y="740.2248">: string[]</text><text fill="#D9B8FF" font-family="sans-serif" font-size="14" font-weight="bold" lengthAdjust="spacing" textLength="40" x="18" y="766.5217">state</text><text fill="#D9B8FF" font-family="sans-serif" font-size="14" lengthAdjust="spacing" textLength="48" x="58" y="766.5217">: string</text><text fill="#D9B8FF" font-family="sans-serif" font-size="14" font-weight="bold" lengthAdjust="spacing" textLength="119" x="18" y="792.8186">subscription_id</text><text fill="#D9B8FF" font-family="sans-serif" font-size="14" lengthAdjust="spacing" textLength="48" x="137" y="792.8186">: string</text><text fill="#D9B8FF" font-family="sans-serif" font-size="14" font-weight="bold" lengthAdjust="spacing" textLength="165" x="18" y="819.1154">subscription_policies</text><text fill="#D9B8FF" font-family="sans-serif" font-size="14" lengthAdjust="spacing" textLength="199" x="183" y="819.1154">: azure_subscription_policies</text><text fill="#D9B8FF" font-family="sans-serif" font-size="14" font-weight="bold" lengthAdjust="spacing" textLength="72" x="18" y="845.4123">tenant_id</text><text fill="#D9B8FF" font-family="sans-serif" font-size="14" lengthAdjust="spacing" textLength="48" x="90" y="845.4123">: string</text></g><!--class azure_subscription_policies--><g id="elem_azure_subscription_policies"><rect codeLine="36" fill="#3D176E" height="126.6797" id="azure_subscription_policies" rx="2.5" ry="2.5" style="stroke:#000D19;stroke-width:0.5;" width="267" x="66.5" y="917.71"/><ellipse cx="81.5" cy="937.6045" fill="#ADD1B2" rx="11" ry="11" style="stroke:#181818;stroke-width:1.0;"/><path d="M84.4688,943.2452 Q83.8906,943.542 83.25,943.6827 Q82.6094,943.8389 81.9063,943.8389 Q79.4063,943.8389 78.0781,942.1983 Q76.7656,940.542 76.7656,937.417 Q76.7656,934.292 78.0781,932.6358 Q79.4063,930.9795 81.9063,930.9795 Q82.6094,930.9795 83.25,931.1358 Q83.9063,931.292 84.4688,931.5889 L84.4688,934.3077 Q83.8438,933.7295 83.25,933.4639 Q82.6563,933.1827 82.0313,933.1827 Q80.6875,933.1827 80,934.2608 Q79.3125,935.3233 79.3125,937.417 Q79.3125,939.5108 80,940.5889 Q80.6875,941.6514 82.0313,941.6514 Q82.6563,941.6514 83.25,941.3858 Q83.8438,941.1045 84.4688,940.5264 L84.4688,943.2452 Z " fill="#000000"/><text fill="#D9B8FF" font-family="Helvetica" font-size="17" lengthAdjust="spacing" textLength="225" x="100.5" y="943.4898">azure_subscription_policies</text><line style="stroke:#000D19;stroke-width:0.5;" x1="67.5" x2="332.5" y1="957.4991" y2="957.4991"/><text fill="#D9B8FF" font-family="sans-serif" font-size="14" font-weight="bold" lengthAdjust="spacing" textLength="172" x="77.5" y="979.4942">location_placement_id</text><text fill="#D9B8FF" font-family="sans-serif" font-size="14" lengthAdjust="spacing" textLength="48" x="249.5" y="979.4942">: string</text><text fill="#D9B8FF" font-family="sans-serif" font-size="14" font-weight="bold" lengthAdjust="spacing" textLength="66" x="77.5" y="1005.7911">quota_id</text><text fill="#D9B8FF" font-family="sans-serif" font-size="14" lengthAdjust="spacing" textLength="48" x="143.5" y="1005.7911">: string</text><text fill="#D9B8FF" font-family="sans-serif" font-size="14" font-weight="bold" lengthAdjust="spacing" textLength="112" x="77.5" y="1032.0879">spending_limit</text><text fill="#D9B8FF" font-family="sans-serif" font-size="14" lengthAdjust="spacing" textLength="48" x="189.5" y="1032.0879">: string</text></g><!--class resource--><g id="elem_resource"><rect codeLine="41" fill="#3D176E" height="310.7578" id="resource" rx="2.5" ry="2.5" style="stroke:#000D19;stroke-width:0.5;" width="227" x="86.5" y="7"/><ellipse cx="155.25" cy="26.8945" fill="#ADD1B2" rx="11" ry="11" style="stroke:#181818;stroke-width:1.0;"/><path d="M158.2188,32.5352 Q157.6406,32.832 157,32.9727 Q156.3594,33.1289 155.6563,33.1289 Q153.1563,33.1289 151.8281,31.4883 Q150.5156,29.832 150.5156,26.707 Q150.5156,23.582 151.8281,21.9258 Q153.1563,20.2695 155.6563,20.2695 Q156.3594,20.2695 157,20.4258 Q157.6563,20.582 158.2188,20.8789 L158.2188,23.5977 Q157.5938,23.0195 157,22.7539 Q156.4063,22.4727 155.7813,22.4727 Q154.4375,22.4727 153.75,23.5508 Q153.0625,24.6133 153.0625,26.707 Q153.0625,28.8008 153.75,29.8789 Q154.4375,30.9414 155.7813,30.9414 Q156.4063,30.9414 157,30.6758 Q157.5938,30.3945 158.2188,29.8164 L158.2188,32.5352 Z " fill="#000000"/><text fill="#D9B8FF" font-family="Helvetica" font-size="17" lengthAdjust="spacing" textLength="71" x="180.75" y="32.7798">resource</text><line style="stroke:#000D19;stroke-width:0.5;" x1="87.5" x2="312.5" y1="46.7891" y2="46.7891"/><text fill="#D9B8FF" font-family="sans-serif" font-size="14" font-weight="bold" lengthAdjust="spacing" textLength="29" x="97.5" y="68.7842">age</text><text fill="#D9B8FF" font-family="sans-serif" font-size="14" lengthAdjust="spacing" textLength="66" x="126.5" y="68.7842">: duration</text><text fill="#D9B8FF" font-family="sans-serif" font-size="14" font-weight="bold" lengthAdjust="spacing" textLength="43" x="97.5" y="95.0811">atime</text><text fill="#D9B8FF" font-family="sans-serif" font-size="14" lengthAdjust="spacing" textLength="70" x="140.5" y="95.0811">: datetime</text><text fill="#D9B8FF" font-family="sans-serif" font-size="14" font-weight="bold" lengthAdjust="spacing" textLength="43" x="97.5" y="121.3779">ctime</text><text fill="#D9B8FF" font-family="sans-serif" font-size="14" lengthAdjust="spacing" textLength="70" x="140.5" y="121.3779">: datetime</text><text fill="#D9B8FF" font-family="sans-serif" font-size="14" font-weight="bold" lengthAdjust="spacing" textLength="14" x="97.5" y="147.6748">id</text><text fill="#D9B8FF" font-family="sans-serif" font-size="14" lengthAdjust="spacing" textLength="48" x="111.5" y="147.6748">: string</text><text fill="#D9B8FF" font-family="sans-serif" font-size="14" font-weight="bold" lengthAdjust="spacing" textLength="33" x="97.5" y="173.9717">kind</text><text fill="#D9B8FF" font-family="sans-serif" font-size="14" lengthAdjust="spacing" textLength="48" x="130.5" y="173.9717">: string</text><text fill="#D9B8FF" font-family="sans-serif" font-size="14" font-weight="bold" lengthAdjust="spacing" textLength="90" x="97.5" y="200.2686">last_access</text><text fill="#D9B8FF" font-family="sans-serif" font-size="14" lengthAdjust="spacing" textLength="66" x="187.5" y="200.2686">: duration</text><text fill="#D9B8FF" font-family="sans-serif" font-size="14" font-weight="bold" lengthAdjust="spacing" textLength="90" x="97.5" y="226.5654">last_update</text><text fill="#D9B8FF" font-family="sans-serif" font-size="14" lengthAdjust="spacing" textLength="66" x="187.5" y="226.5654">: duration</text><text fill="#D9B8FF" font-family="sans-serif" font-size="14" font-weight="bold" lengthAdjust="spacing" textLength="48" x="97.5" y="252.8623">mtime</text><text fill="#D9B8FF" font-family="sans-serif" font-size="14" lengthAdjust="spacing" textLength="70" x="145.5" y="252.8623">: datetime</text><text fill="#D9B8FF" font-family="sans-serif" font-size="14" font-weight="bold" lengthAdjust="spacing" textLength="43" x="97.5" y="279.1592">name</text><text fill="#D9B8FF" font-family="sans-serif" font-size="14" lengthAdjust="spacing" textLength="48" x="140.5" y="279.1592">: string</text><text fill="#D9B8FF" font-family="sans-serif" font-size="14" font-weight="bold" lengthAdjust="spacing" textLength="34" x="97.5" y="305.4561">tags</text><text fill="#D9B8FF" font-family="sans-serif" font-size="14" lengthAdjust="spacing" textLength="171" x="131.5" y="305.4561">: dictionary[string, string]</text></g><!--reverse link resource to account--><g id="link_resource_account"><path codeLine="53" d="M150.3877,335.1339 C136.4477,383.4239 127.79,413.37 120.48,438.67 " fill="none" id="resource-backto-account" style="stroke:#FFAF37;stroke-width:2.0;"/><polygon fill="none" points="155.38,317.84,144.6231,333.4698,156.1524,336.7979,155.38,317.84" style="stroke:#FFAF37;stroke-width:2.0;"/></g><!--reverse link resource to azure_resource--><g id="link_resource_azure_resource"><path codeLine="54" d="M250.7711,335.1021 C265.0411,383.3921 273.91,413.37 281.39,438.67 " fill="none" id="resource-backto-azure_resource" style="stroke:#FFAF37;stroke-width:2.0;"/><polygon fill="none" points="245.67,317.84,245.017,336.8024,256.5251,333.4017,245.67,317.84" style="stroke:#FFAF37;stroke-width:2.0;"/></g><!--reverse link account to azure_subscription--><g id="link_account_azure_subscription"><path codeLine="55" d="M126.5531,496.0773 C134.7031,521.7673 144.38,552.27 159.22,599.05 " fill="none" id="account-backto-azure_subscription" style="stroke:#FFAF37;stroke-width:2.0;"/><polygon fill="none" points="121.11,478.92,120.834,497.8917,132.2722,494.263,121.11,478.92" style="stroke:#FFAF37;stroke-width:2.0;"/></g><!--reverse link azure_resource to azure_subscription--><g id="link_azure_resource_azure_subscription"><path codeLine="56" d="M275.1881,496.0424 C266.8581,521.7324 256.93,552.27 241.74,599.05 " fill="none" id="azure_resource-backto-azure_subscription" style="stroke:#FFAF37;stroke-width:2.0;"/><polygon fill="none" points="280.74,478.92,269.4806,494.1917,280.8955,497.893,280.74,478.92" style="stroke:#FFAF37;stroke-width:2.0;"/></g><!--link azure_subscription to azure_subscription_policies--><g id="link_azure_subscription_azure_subscription_policies"><path codeLine="57" d="M200,858.14 C200,878.8 200,893.33 200,911.5 " fill="none" id="azure_subscription-to-azure_subscription_policies" style="stroke:#FFAF37;stroke-width:2.0;"/><polygon fill="#FFAF37" points="200,917.5,204,908.5,200,912.5,196,908.5,200,917.5" style="stroke:#FFAF37;stroke-width:2.0;"/></g><!--SRC=[XLHTYzim47pFhp3ScwaXwT7cSfJ2DL3QbwFq-dOSPYsj7H5RSbVh7axR_rxPJbBPoiURsHdjpEmktYY94LOrjr65LOPaPtQhT0q4LVH0P5xNfZGKtUGvvBVBAVZPQBvAU8GAeozO_a9M0gQC7nibjXgjZTvwq2SGsu9Ce-NGdWcqTH1gzbZh4gnzO2QLDOoU6RdAxl9yofmslRcLY-Lx36Y69DAUCf_FvM8rfLoLkfZxo7XIEumM_j0U3MDWCv3eMHTTTWpFP13qW9_r-0saLBg8tdcrxuCdqaYZ-jC6f7djs3cKrfUnZ8I6snhNGIfStSbyUPByzHnPT9EBG0W7SVHxzlTGsJM4AQ4r3GaC0DjaLf2gMHdjm3ZUTqYrYn_7zqwQdFqEQ7XZIEsWewP3kn51AbkNq8OlAz1Ge4opDcNKeDd-XvzV7C4oyFY9RojLyZnMcr89XNt7CD4HTiy6wN6pyxCulko7KXenn7O11LOuxHF7Fnl343YjKNUdafQgKdn2rrkB6t3Hpq0sr6jr5LR3AAMRJ_VjQk94RIBhpcPSS5gSkiMwNyb4eKUQMkxdxo7L2PrWimp5q569xXbG-pnWR_QS5nVr6FB3doH93YSQb4TtEZiSiW_w-vbDxleARtJcIVBnqiR_0G00]--></g></svg>

<svg xmlns="http://www.w3.org/2000/svg" width="400" height="1051" viewBox="0 0 400 1051"><rect width="107" height="39.789" x="61.5" y="438.76" fill="#3D176E" rx="2.5" ry="2.5" style="stroke:#000d19;stroke-width:.5"/><circle cx="76.5" cy="458.654" r="11" fill="#ADD1B2" style="stroke:#181818;stroke-width:1"/><path d="M79.469 464.295q-.578.297-1.219.438-.64.156-1.344.156-2.5 0-3.828-1.64-1.312-1.657-1.312-4.782t1.312-4.781q1.328-1.656 3.828-1.656.703 0 1.344.156.656.156 1.219.453v2.719q-.625-.579-1.219-.844-.594-.281-1.219-.281-1.344 0-2.031 1.078-.687 1.062-.687 3.156t.687 3.172q.688 1.062 2.031 1.062.625 0 1.219-.265.594-.281 1.219-.86z"/><text x="95.5" y="464.54" fill="#D9B8FF" font-family="Helvetica" font-size="17" textLength="65">account</text><rect width="168" height="39.789" x="203" y="438.76" fill="#3D176E" rx="2.5" ry="2.5" style="stroke:#000d19;stroke-width:.5"/><circle cx="218" cy="458.654" r="11" fill="#ADD1B2" style="stroke:#181818;stroke-width:1"/><path d="M220.969 464.295q-.578.297-1.219.438-.64.156-1.344.156-2.5 0-3.828-1.64-1.312-1.657-1.312-4.782t1.312-4.781q1.328-1.656 3.828-1.656.703 0 1.344.156.656.156 1.219.453v2.719q-.625-.579-1.219-.844-.594-.281-1.219-.281-1.344 0-2.031 1.078-.687 1.062-.687 3.156t.687 3.172q.688 1.062 2.031 1.062.625 0 1.219-.265.594-.281 1.219-.86z"/><text x="237" y="464.54" fill="#D9B8FF" font-family="Helvetica" font-size="17" textLength="126">azure_resource</text><rect width="386" height="258.164" x="7" y="599.55" fill="#3D176E" rx="2.5" ry="2.5" style="stroke:#000d19;stroke-width:.5"/><circle cx="113.25" cy="619.444" r="11" fill="#ADD1B2" style="stroke:#181818;stroke-width:1"/><path d="M116.219 625.085q-.578.297-1.219.438-.64.156-1.344.156-2.5 0-3.828-1.64-1.312-1.657-1.312-4.782t1.312-4.781q1.328-1.657 3.828-1.657.703 0 1.344.157.656.156 1.219.453v2.719q-.625-.579-1.219-.844-.594-.281-1.219-.281-1.344 0-2.031 1.078-.687 1.062-.687 3.156t.687 3.172q.688 1.062 2.031 1.062.625 0 1.219-.265.594-.282 1.219-.86z"/><text x="138.75" y="625.33" fill="#D9B8FF" font-family="Helvetica" font-size="17" textLength="155">azure_subscription</text><path d="M8 639.339h384" style="stroke:#000d19;stroke-width:.5"/><text x="18" y="661.334" fill="#D9B8FF" font-family="sans-serif" font-size="14" font-weight="bold" textLength="113">account_name</text><text x="131" y="661.334" fill="#D9B8FF" font-family="sans-serif" font-size="14" textLength="48">: string</text><text x="18" y="687.631" fill="#D9B8FF" font-family="sans-serif" font-size="14" font-weight="bold" textLength="166">authorization_source</text><text x="184" y="687.631" fill="#D9B8FF" font-family="sans-serif" font-size="14" textLength="48">: string</text><text x="18" y="713.928" fill="#D9B8FF" font-family="sans-serif" font-size="14" font-weight="bold" textLength="105">display_name</text><text x="123" y="713.928" fill="#D9B8FF" font-family="sans-serif" font-size="14" textLength="48">: string</text><text x="18" y="740.225" fill="#D9B8FF" font-family="sans-serif" font-size="14" font-weight="bold" textLength="165">managed_by_tenants</text><text x="183" y="740.225" fill="#D9B8FF" font-family="sans-serif" font-size="14" textLength="58">: string[]</text><text x="18" y="766.522" fill="#D9B8FF" font-family="sans-serif" font-size="14" font-weight="bold" textLength="40">state</text><text x="58" y="766.522" fill="#D9B8FF" font-family="sans-serif" font-size="14" textLength="48">: string</text><text x="18" y="792.819" fill="#D9B8FF" font-family="sans-serif" font-size="14" font-weight="bold" textLength="119">subscription_id</text><text x="137" y="792.819" fill="#D9B8FF" font-family="sans-serif" font-size="14" textLength="48">: string</text><text x="18" y="819.115" fill="#D9B8FF" font-family="sans-serif" font-size="14" font-weight="bold" textLength="165">subscription_policies</text><text x="183" y="819.115" fill="#D9B8FF" font-family="sans-serif" font-size="14" textLength="199">: azure_subscription_policies</text><text x="18" y="845.412" fill="#D9B8FF" font-family="sans-serif" font-size="14" font-weight="bold" textLength="72">tenant_id</text><text x="90" y="845.412" fill="#D9B8FF" font-family="sans-serif" font-size="14" textLength="48">: string</text><rect width="267" height="126.68" x="66.5" y="917.71" fill="#3D176E" rx="2.5" ry="2.5" style="stroke:#000d19;stroke-width:.5"/><circle cx="81.5" cy="937.605" r="11" fill="#ADD1B2" style="stroke:#181818;stroke-width:1"/><path d="M84.469 943.245q-.578.297-1.219.438-.64.156-1.344.156-2.5 0-3.828-1.64-1.312-1.657-1.312-4.782t1.312-4.781q1.328-1.656 3.828-1.656.703 0 1.344.156.656.156 1.219.453v2.719q-.625-.578-1.219-.844-.594-.281-1.219-.281-1.344 0-2.031 1.078-.687 1.062-.687 3.156t.687 3.172q.688 1.062 2.031 1.062.625 0 1.219-.265.594-.281 1.219-.86z"/><text x="100.5" y="943.49" fill="#D9B8FF" font-family="Helvetica" font-size="17" textLength="225">azure_subscription_policies</text><path d="M67.5 957.499h265" style="stroke:#000d19;stroke-width:.5"/><text x="77.5" y="979.494" fill="#D9B8FF" font-family="sans-serif" font-size="14" font-weight="bold" textLength="172">location_placement_id</text><text x="249.5" y="979.494" fill="#D9B8FF" font-family="sans-serif" font-size="14" textLength="48">: string</text><text x="77.5" y="1005.791" fill="#D9B8FF" font-family="sans-serif" font-size="14" font-weight="bold" textLength="66">quota_id</text><text x="143.5" y="1005.791" fill="#D9B8FF" font-family="sans-serif" font-size="14" textLength="48">: string</text><text x="77.5" y="1032.088" fill="#D9B8FF" font-family="sans-serif" font-size="14" font-weight="bold" textLength="112">spending_limit</text><text x="189.5" y="1032.088" fill="#D9B8FF" font-family="sans-serif" font-size="14" textLength="48">: string</text><rect width="227" height="310.758" x="86.5" y="7" fill="#3D176E" rx="2.5" ry="2.5" style="stroke:#000d19;stroke-width:.5"/><circle cx="155.25" cy="26.895" r="11" fill="#ADD1B2" style="stroke:#181818;stroke-width:1"/><path d="M158.219 32.535q-.578.297-1.219.438-.64.156-1.344.156-2.5 0-3.828-1.64-1.312-1.657-1.312-4.782t1.312-4.781q1.328-1.656 3.828-1.656.703 0 1.344.156.656.156 1.219.453v2.719q-.625-.578-1.219-.844-.594-.281-1.219-.281-1.344 0-2.031 1.078-.687 1.062-.687 3.156t.687 3.172q.688 1.062 2.031 1.062.625 0 1.219-.265.594-.281 1.219-.86z"/><text x="180.75" y="32.78" fill="#D9B8FF" font-family="Helvetica" font-size="17" textLength="71">resource</text><path d="M87.5 46.789h225" style="stroke:#000d19;stroke-width:.5"/><text x="97.5" y="68.784" fill="#D9B8FF" font-family="sans-serif" font-size="14" font-weight="bold" textLength="29">age</text><text x="126.5" y="68.784" fill="#D9B8FF" font-family="sans-serif" font-size="14" textLength="66">: duration</text><text x="97.5" y="95.081" fill="#D9B8FF" font-family="sans-serif" font-size="14" font-weight="bold" textLength="43">atime</text><text x="140.5" y="95.081" fill="#D9B8FF" font-family="sans-serif" font-size="14" textLength="70">: datetime</text><text x="97.5" y="121.378" fill="#D9B8FF" font-family="sans-serif" font-size="14" font-weight="bold" textLength="43">ctime</text><text x="140.5" y="121.378" fill="#D9B8FF" font-family="sans-serif" font-size="14" textLength="70">: datetime</text><text x="97.5" y="147.675" fill="#D9B8FF" font-family="sans-serif" font-size="14" font-weight="bold" textLength="14">id</text><text x="111.5" y="147.675" fill="#D9B8FF" font-family="sans-serif" font-size="14" textLength="48">: string</text><text x="97.5" y="173.972" fill="#D9B8FF" font-family="sans-serif" font-size="14" font-weight="bold" textLength="33">kind</text><text x="130.5" y="173.972" fill="#D9B8FF" font-family="sans-serif" font-size="14" textLength="48">: string</text><text x="97.5" y="200.269" fill="#D9B8FF" font-family="sans-serif" font-size="14" font-weight="bold" textLength="90">last_access</text><text x="187.5" y="200.269" fill="#D9B8FF" font-family="sans-serif" font-size="14" textLength="66">: duration</text><text x="97.5" y="226.565" fill="#D9B8FF" font-family="sans-serif" font-size="14" font-weight="bold" textLength="90">last_update</text><text x="187.5" y="226.565" fill="#D9B8FF" font-family="sans-serif" font-size="14" textLength="66">: duration</text><text x="97.5" y="252.862" fill="#D9B8FF" font-family="sans-serif" font-size="14" font-weight="bold" textLength="48">mtime</text><text x="145.5" y="252.862" fill="#D9B8FF" font-family="sans-serif" font-size="14" textLength="70">: datetime</text><text x="97.5" y="279.159" fill="#D9B8FF" font-family="sans-serif" font-size="14" font-weight="bold" textLength="43">name</text><text x="140.5" y="279.159" fill="#D9B8FF" font-family="sans-serif" font-size="14" textLength="48">: string</text><text x="97.5" y="305.456" fill="#D9B8FF" font-family="sans-serif" font-size="14" font-weight="bold" textLength="34">tags</text><text x="131.5" y="305.456" fill="#D9B8FF" font-family="sans-serif" font-size="14" textLength="171">: dictionary[string, string]</text><path fill="none" d="M150.388 335.134c-13.94 48.29-22.598 78.236-29.908 103.536m34.9-120.83-10.757 15.63 11.53 3.328z" style="stroke:#ffaf37;stroke-width:2"/><g fill="none"><path d="M250.771 335.102c14.27 48.29 23.139 78.268 30.619 103.568" style="stroke:#ffaf37;stroke-width:2"/><path d="m245.67 317.84-.653 18.962 11.508-3.4z" style="stroke:#ffaf37;stroke-width:2"/></g><path fill="none" d="M126.553 496.077 159.22 599.05m-38.11-120.13-.276 18.972 11.438-3.629z" style="stroke:#ffaf37;stroke-width:2"/><g fill="none"><path d="M275.188 496.042c-8.33 25.69-18.258 56.228-33.448 103.008" style="stroke:#ffaf37;stroke-width:2"/><path d="m280.74 478.92-11.26 15.272 11.416 3.701z" style="stroke:#ffaf37;stroke-width:2"/></g><path fill="none" d="M200 858.14v53.36" style="stroke:#ffaf37;stroke-width:2"/><path fill="#FFAF37" d="m200 917.5 4-9-4 4-4-4z" style="stroke:#ffaf37;stroke-width:2"/></svg>
